assets/icons/24px/stroke/stack-vertical-24px.svg

<svg width="24" height="24" viewBox="0 0 24 24" fill="none" xmlns="http://www.w3.org/2000/svg">
<path fill-rule="evenodd" clip-rule="evenodd" d="M17.9773 15.9227C17.7571 15.7871 17.4557 15.6194 17.0144 15.3742L17.9857 13.6259L18.0067 13.6375C18.4218 13.8682 18.7629 14.0576 19.0261 14.2197C19.286 14.3798 19.5481 14.559 19.7558 14.7857C20.8724 16.0046 20.7926 17.8971 19.5774 19.0176C19.3514 19.2261 19.0751 19.3826 18.8026 19.5202C18.5268 19.6596 18.171 19.8197 17.7379 20.0146L14.8726 21.304C14.8157 21.3296 14.7596 21.3549 14.7041 21.3799C13.6578 21.8518 12.863 22.2103 12 22.2103C11.1371 22.2103 10.3422 21.8518 9.29591 21.3799C9.2405 21.3549 9.18438 21.3296 9.1275 21.304L5.87187 19.8389C5.50627 19.6744 5.2044 19.5386 4.96825 19.4207C4.73349 19.3035 4.49543 19.1714 4.29254 18.9992C3.00507 17.9062 2.87319 15.9663 4.00088 14.709C4.17859 14.5109 4.39659 14.3479 4.61333 14.2C4.83133 14.0512 5.11204 13.8758 5.45199 13.6633L5.47002 13.652L6.53003 15.348C6.16755 15.5746 5.92141 15.7286 5.74076 15.8519C5.55499 15.9787 5.5009 16.032 5.4897 16.0445C5.11381 16.4636 5.15777 17.1102 5.58692 17.4745C5.59971 17.4854 5.66051 17.5309 5.86173 17.6314C6.05741 17.7291 6.32214 17.8484 6.71195 18.0238L9.94822 19.4801C11.2419 20.0623 11.6209 20.2103 12 20.2103C12.3792 20.2103 12.7582 20.0623 14.0518 19.4801L16.8952 18.2006C17.3556 17.9934 17.67 17.8517 17.9009 17.7351C18.1399 17.6144 18.2089 17.5591 18.2216 17.5474C18.6267 17.1738 18.6533 16.543 18.2811 16.1367C18.2694 16.1239 18.2053 16.0631 17.9773 15.9227Z" fill="white"/>
<path fill-rule="evenodd" clip-rule="evenodd" d="M17.7142 11.4926C17.449 11.3429 17.0843 11.1602 16.5528 10.8944L17.4472 9.10559L17.4716 9.11778C17.9728 9.36838 18.3828 9.57338 18.6971 9.75073C19.0056 9.92481 19.3174 10.1231 19.5563 10.3856C20.6299 11.5651 20.5929 13.3784 19.4721 14.5131C19.2227 14.7656 18.903 14.951 18.5877 15.1124C18.2664 15.2768 17.8484 15.4649 17.3374 15.6948L14.8373 16.8199C14.782 16.8447 14.7275 16.8693 14.6737 16.8936C13.6575 17.3519 12.8859 17.6998 12.0485 17.71C12.0162 17.7104 11.9839 17.7104 11.9516 17.71C11.1141 17.6998 10.3425 17.3519 9.32635 16.8936C9.27252 16.8693 9.21801 16.8447 9.16277 16.8199L6.26217 15.5146C5.8291 15.3197 5.47328 15.1596 5.19739 15.0203C4.92495 14.8827 4.64865 14.7261 4.42257 14.5177C3.2074 13.3971 3.12762 11.5047 4.24418 10.2858C4.4519 10.059 4.71405 9.87981 4.97394 9.71975C5.23713 9.55767 5.5782 9.36818 5.99332 9.13756L6.01437 9.12586L6.98567 10.8742C6.54432 11.1194 6.24297 11.2871 6.02272 11.4227C5.79474 11.5631 5.73066 11.6239 5.71894 11.6367C5.34675 12.043 5.37334 12.6738 5.7784 13.0474C5.79116 13.0591 5.86014 13.1144 6.09912 13.2351C6.33 13.3517 6.6444 13.4934 7.10483 13.7006L9.9835 14.996C11.2395 15.5612 11.6078 15.7057 11.9758 15.7101C11.9919 15.7103 12.0081 15.7103 12.0243 15.7101C12.3922 15.7057 12.7605 15.5612 14.0165 14.996L16.4918 13.8822C17.0337 13.6383 17.4055 13.4707 17.6767 13.3319C17.8093 13.2641 17.9004 13.2118 17.964 13.1705C17.9949 13.1503 18.0161 13.1349 18.0301 13.1238C18.044 13.1129 18.0493 13.1075 18.0492 13.1077C18.4228 12.7294 18.4351 12.125 18.0772 11.7318C18.0774 11.732 18.0723 11.7264 18.0589 11.7149C18.0453 11.7033 18.0248 11.687 17.9947 11.6656C17.9328 11.6217 17.844 11.5658 17.7142 11.4926Z" fill="white"/>
<path fill-rule="evenodd" clip-rule="evenodd" d="M12 3.85413C11.5833 3.85413 11.1704 4.03285 9.7639 4.73612L7.44722 5.89448C6.91572 6.16024 6.55109 6.34289 6.28582 6.49258C6.15609 6.56578 6.06721 6.62168 6.00533 6.66563C5.97527 6.68698 5.95473 6.7033 5.94118 6.7149C5.92777 6.72639 5.92265 6.73203 5.92284 6.73183C5.56496 7.125 5.5773 7.72947 5.95092 8.10771C5.95072 8.10751 5.95607 8.11294 5.96994 8.12388C5.98394 8.13491 6.00514 8.15038 6.03604 8.17049C6.09967 8.21188 6.19075 8.2641 6.32335 8.33195C6.59451 8.47069 6.96629 8.63831 7.50819 8.88216L9.98351 9.99603C11.2395 10.5612 11.6078 10.7057 11.9758 10.7101C11.9919 10.7103 12.0081 10.7103 12.0242 10.7101C12.3922 10.7057 12.7605 10.5612 14.0165 9.99603L16.4918 8.88216C17.0337 8.63831 17.4055 8.47069 17.6766 8.33195C17.8092 8.2641 17.9003 8.21188 17.964 8.17049C17.9949 8.15038 18.0161 8.13491 18.0301 8.12388C18.0439 8.11294 18.0493 8.10751 18.0491 8.10771C18.4227 7.72947 18.435 7.125 18.0772 6.73183C18.0773 6.73203 18.0722 6.72639 18.0588 6.7149C18.0453 6.7033 18.0247 6.68698 17.9947 6.66563C17.9328 6.62168 17.8439 6.56578 17.7142 6.49258C17.4489 6.34289 17.0843 6.16024 16.5528 5.89448L14.2361 4.73612C12.8296 4.03285 12.4167 3.85413 12 3.85413ZM9.05315 2.85528C10.1881 2.28651 11.0508 1.85413 12 1.85413C12.9492 1.85413 13.8119 2.28651 14.9468 2.85529C15.0073 2.88558 15.0685 2.91626 15.1305 2.94728L17.4717 4.11785C17.9728 4.36843 18.3828 4.57341 18.697 4.75075C19.0055 4.92482 19.3173 5.12312 19.5562 5.38556C20.6298 6.56507 20.5928 8.37847 19.472 9.5132C19.2226 9.76567 18.903 9.95109 18.5876 10.1124C18.2664 10.2768 17.8484 10.4649 17.3374 10.6948L14.8372 11.8199C14.782 11.8447 14.7275 11.8693 14.6736 11.8936C13.6575 12.3519 12.8859 12.6998 12.0485 12.71C12.0162 12.7104 11.9838 12.7104 11.9515 12.71C11.1141 12.6998 10.3425 12.3519 9.32637 11.8936C9.27255 11.8693 9.21804 11.8447 9.16279 11.8199L6.66259 10.6948C6.15163 10.4649 5.73363 10.2768 5.41238 10.1124C5.09703 9.95109 4.77742 9.76567 4.52804 9.5132C3.40717 8.37847 3.37017 6.56507 4.4438 5.38556C4.68268 5.12312 4.99446 4.92482 5.30295 4.75075C5.61724 4.57341 6.02722 4.36841 6.52839 4.11783L8.86945 2.94728C8.9315 2.91625 8.99271 2.88558 9.05315 2.85528Z" fill="white"/>
</svg>

<svg width="24" height="24" fill="none" xmlns="http://www.w3.org/2000/svg"><path fill-rule="evenodd" clip-rule="evenodd" d="M17.977 15.923c-.22-.136-.521-.304-.963-.549l.972-1.748.02.011c.416.231.757.42 1.02.583.26.16.522.339.73.566a3 3 0 0 1-.179 4.232c-.226.208-.502.365-.774.502-.276.14-.632.3-1.065.495l-2.865 1.289-.169.076c-1.046.472-1.841.83-2.704.83-.863 0-1.658-.358-2.704-.83l-.168-.076-3.256-1.465c-.366-.165-.668-.3-.904-.418a3.34 3.34 0 0 1-.675-.422A3 3 0 0 1 4 14.71c.178-.198.396-.361.612-.509.218-.149.499-.324.839-.537l.018-.011 1.06 1.696c-.362.227-.609.38-.79.504-.185.127-.24.18-.25.192a1 1 0 0 0 .097 1.43c.013.011.074.057.275.157.195.098.46.217.85.393l3.236 1.456c1.294.582 1.673.73 2.052.73.38 0 .758-.148 2.052-.73l2.843-1.28c.46-.207.775-.348 1.006-.465.239-.12.308-.176.32-.188a1 1 0 0 0 .06-1.41c-.012-.013-.076-.074-.304-.214z" fill="#fff"/><path fill-rule="evenodd" clip-rule="evenodd" d="M17.714 11.493c-.265-.15-.63-.333-1.161-.599l.894-1.788.025.012c.5.25.91.455 1.225.633.309.174.62.372.86.635a3 3 0 0 1-.085 4.127c-.25.253-.569.438-.884.6-.322.164-.74.352-1.25.582l-2.5 1.125-.164.074c-1.016.458-1.788.806-2.625.816h-.097c-.838-.01-1.61-.358-2.626-.816a87 87 0 0 0-.163-.074l-2.9-1.305c-.434-.195-.79-.355-1.066-.495-.272-.137-.548-.294-.774-.502a3 3 0 0 1-.179-4.232c.208-.227.47-.406.73-.566.263-.162.604-.352 1.02-.582l.02-.012.972 1.748c-.442.245-.743.413-.963.549-.228.14-.292.2-.304.214a1 1 0 0 0 .06 1.41c.012.012.081.067.32.188.231.117.545.258 1.006.466l2.878 1.295c1.256.565 1.625.71 1.993.714h.048c.368-.004.737-.149 1.993-.714l2.475-1.114c.542-.244.913-.411 1.185-.55.132-.068.223-.12.287-.162a.912.912 0 0 0 .066-.046l.02-.016a1 1 0 0 0 .027-1.376l-.018-.017a.93.93 0 0 0-.064-.05 3.29 3.29 0 0 0-.28-.172z" fill="#fff"/><path fill-rule="evenodd" clip-rule="evenodd" d="M12 3.854c-.417 0-.83.179-2.236.882L7.447 5.894c-.531.266-.896.449-1.161.599-.13.073-.219.129-.28.173a.91.91 0 0 0-.065.049l-.018.017a1 1 0 0 0 .028 1.376l.019.016a.912.912 0 0 0 .066.046c.064.042.155.094.287.162.272.139.643.306 1.185.55l2.476 1.114c1.255.565 1.624.71 1.992.714h.048c.368-.004.737-.149 1.993-.714l2.475-1.114c.542-.244.913-.411 1.185-.55a3.3 3.3 0 0 0 .287-.162.912.912 0 0 0 .066-.046l.02-.016a1 1 0 0 0 .027-1.376l-.018-.017a.908.908 0 0 0-.064-.05c-.062-.043-.151-.1-.28-.172-.266-.15-.63-.333-1.162-.599l-2.317-1.158c-1.406-.703-1.82-.882-2.236-.882zm-2.947-.999c1.135-.568 1.998-1 2.947-1 .95 0 1.812.432 2.947 1l.184.092 2.34 1.17c.502.251.912.456 1.226.634.309.174.62.372.86.635a3 3 0 0 1-.085 4.127c-.25.253-.569.438-.884.6-.322.164-.74.352-1.25.582l-2.5 1.125-.164.074c-1.016.458-1.788.806-2.625.816h-.098c-.837-.01-1.609-.358-2.625-.816a81.567 81.567 0 0 0-.163-.074l-2.5-1.125c-.511-.23-.93-.418-1.25-.583-.316-.16-.636-.346-.885-.599a3 3 0 0 1-.084-4.127c.239-.263.55-.461.859-.635.314-.178.724-.383 1.225-.633l2.341-1.17.184-.093z" fill="#fff"/></svg>
